X: 1577
T: Sailor's Hornpipe, The
R:hornpipe
N:"No. 1"
B:O'Neill's 1577
Z:Transcribed by Michael Hogan
M:C|
L:1/8
K:D
(AG) | FAdc d2 (AG) | FAdc d2 (A^G) | Aced cBA^G | Aced cBA=G |
FAdc d2 (AG | FAdc d2 A2 | BcdB cdec | f2 d2 d2 :|
|: (ef) | gfge c2 (ec) | dcdB A2 (GF) | GABG FGAF | E^DEF E2 (ef) |
gfge c2 (ec) | dcdB A2 (^GA) | BcdB cdec | f2 d2 d2 :||


